coreui/free/cil-elevator.svg

<svg xmlns="http://www.w3.org/2000/svg" viewBox="0 0 512 512">
  <path fill="var(--ci-primary-color, currentColor)" d="M256,30.4,96,168.681V232H416V168.681ZM384,200H128V183.319L256,72.7,384,183.319Z" class="ci-primary"/>
  <path fill="var(--ci-primary-color, currentColor)" d="M96,343.319,256,481.6,416,343.319V280H96ZM128,312H384v16.681L256,439.3,128,328.681Z" class="ci-primary"/>
</svg>

<svg viewBox="0 0 512 512" xmlns="http://www.w3.org/2000/svg"><g><path d="M256 30.4L96 168.681v63.31h320v-63.32ZM384 200H128v-16.69L256 72.69 384 183.3Z"/><path d="M96 343.319L256 481.6l160-138.281v-63.32H96Zm32-31.32h256v16.68L256 439.28 128 328.66Z"/></g></svg>
